icon/cg/tv.svg

<svg viewBox="0 0 24 24" fill="none" xmlns="http://www.w3.org/2000/svg" height="1em" width="1em">
  <path fill-rule="evenodd" clip-rule="evenodd" d="M8 6.11861L9.4131 4.70551L11.5371 6.82954L14.3667 4L15.7782 5.41151L13.3137 7.87598H18C19.1046 7.87598 20 8.77141 20 9.87598V16.876C20 17.9805 19.1046 18.876 18 18.876H6C4.89543 18.876 4 17.9805 4 16.876V9.87598C4 8.77141 4.89543 7.87598 6 7.87598H9.75736L8 6.11861ZM18 9.87598H6V16.876H18V9.87598Z" fill="currentColor"/>
  <path d="M8 19.876H16V20.876H8V19.876Z" fill="currentColor"/>
</svg>

<svg width="24" height="24" fill="none" xmlns="http://www.w3.org/2000/svg"><path fill-rule="evenodd" clip-rule="evenodd" d="m8 6.119 1.413-1.413 2.124 2.124L14.367 4l1.411 1.412-2.464 2.464H18a2 2 0 0 1 2 2v7a2 2 0 0 1-2 2H6a2 2 0 0 1-2-2v-7a2 2 0 0 1 2-2h3.757L8 6.119Zm10 3.757H6v7h12v-7Z" fill="currentColor"/><path d="M8 19.876h8v1H8v-1Z" fill="currentColor"/></svg>
